X:1
T:9 Lieder und Gesänge, Op.32
T:Du sprichst, dass ich mich täuschte
T:6. Du sprichst, dass ich mich täuschte
T:Johannes Brahms
T:August von Platen
T:9 Lieder und Gesänge, Op.32
T:Creative Commons copyright waiver (CC0 1.0 Universal) 
T:Creative Commons copyright waiver (CC0 1.0 Universal) 
C:Johannes Brahms
Z:August von Platen
Z:Creative Commons copyright waiver (CC0 1.0 Universal)
Z:
L:1/8
M:4/4
K:Eb
V:1 treble nm="Voice" snm="Vo."
V:1
 z8 | z8 | z8 | z4 z2 G2 | G3 A E2 F2 | G2 G2 z2 d2 | f3 c c2 d2 | =B4 z2 e2 | d2 c2 _B2 G2 | %9
w: |||Du|sprichst, dass ich mich|täusch- te, be-|schworst es hoch und|hehr, ich|weiss ja doch, du|
 B2 A2 z2 f2 | e2 _d2 c3 =d | d2 a2 g2 f2 | e4 =B4 | c4 z4 | z4 z2 G2 | A3 B G2 G2 | c2 F2 z2 z B | %17
w: lieb- test, al-|lein du liebst nicht|mehr, du liebst, du|liebst nicht|mehr!|Dein|schö- nes Au- ge|brann- te, die|
 _d3 e c2 c2 | f4 z2 e2 | =d2 c2 B2 G2 | B2 A2 z2 f2 | e2 _d2 c3 =d | d2 a2 g2 f2 | e4 =B4 | %24
w: Küs- se brann- ten|sehr, du|lieb- test mich, be-|kenn es, al-|lein du liebst nicht|mehr, du liebst, du|liebst nicht|
 c4 z4 | z4 z2 G2 | G3 A G2 F2 | =B2 B2 z2 c2 | _d3 d c2 c2 | =B4 z2 c2 | _B2 A2 G2 =E2 | %31
w: mehr!|Ich|zäh- le nicht auf|neu- e, ge-|treu- e Wie- der-|kehr. Ge-|steh nur, dass, du|
 G2 F2 z2 f2 | e2 _d2 c2 =A2 | e2 _d2 z2 f2 | =e4 f2 c2 | =B4 c2 G2 | =E4 F4 | G8- | G2 z2 z4 |] %39
w: lieb- test, und|lie- be mich nicht|mehr, * und|lie- * be,|lie- * be|mich nicht|mehr!||

